Sources/FrostedUI/Resources/Icons.xcassets/bitcoin20.imageset/bitcoin-20.svg

<svg width="20" height="20" viewBox="0 0 20 20" fill="none" xmlns="http://www.w3.org/2000/svg" data-fui-icon="true">
  <path
    d="M10 1C14.9706 1 19 5.02944 19 10C19 14.9706 14.9706 19 10 19C5.02944 19 1 14.9706 1 10C1 5.02944 5.02944 1 10 1ZM10 2.5C5.85786 2.5 2.5 5.85786 2.5 10C2.5 14.1421 5.85786 17.5 10 17.5C14.1421 17.5 17.5 14.1421 17.5 10C17.5 5.85786 14.1421 2.5 10 2.5ZM12 3.75C12.4142 3.75 12.75 4.08579 12.75 4.5V5.35645C13.9039 5.68316 14.75 6.7415 14.75 8C14.75 8.78923 14.4153 9.49849 13.8828 10C14.4153 10.5015 14.75 11.2108 14.75 12C14.75 13.2584 13.9037 14.3158 12.75 14.6426V15.5C12.75 15.9142 12.4142 16.25 12 16.25C11.5858 16.25 11.25 15.9142 11.25 15.5V14.75H9.25V15.5C9.25 15.9142 8.91421 16.25 8.5 16.25C8.08579 16.25 7.75 15.9142 7.75 15.5V14.75H6C5.58579 14.75 5.25 14.4142 5.25 14C5.25 13.5858 5.58579 13.25 6 13.25H6.77246L6.75391 6.75H6C5.58579 6.75 5.25 6.41421 5.25 6C5.25 5.58579 5.58579 5.25 6 5.25H7.75V4.5C7.75 4.08579 8.08579 3.75 8.5 3.75C8.91421 3.75 9.25 4.08579 9.25 4.5V5.25H11.25V4.5C11.25 4.08579 11.5858 3.75 12 3.75ZM8.27246 13.25H12C12.6904 13.25 13.25 12.6904 13.25 12C13.25 11.3096 12.6904 10.75 12 10.75H8.26562L8.27246 13.25ZM8.26074 9.25H12L12.1279 9.24316C12.7582 9.17908 13.25 8.64715 13.25 8C13.25 7.30964 12.6904 6.75 12 6.75H8.25391L8.26074 9.25Z"
    fill="currentColor"
  />
</svg>

<svg xmlns="http://www.w3.org/2000/svg" width="20" height="20" fill="none" data-fui-icon="true" viewBox="0 0 20 20"><path fill="currentColor" d="M10 1a9 9 0 1 1 0 18 9 9 0 0 1 0-18m0 1.5a7.5 7.5 0 1 0 0 15 7.5 7.5 0 0 0 0-15m2 1.25a.75.75 0 0 1 .75.75v.856c1.154.327 2 1.386 2 2.644a2.74 2.74 0 0 1-.867 2 2.74 2.74 0 0 1 .867 2 2.75 2.75 0 0 1-2 2.643v.857a.75.75 0 0 1-1.5 0v-.75h-2v.75a.75.75 0 0 1-1.5 0v-.75H6a.75.75 0 0 1 0-1.5h.772l-.018-6.5H6a.75.75 0 0 1 0-1.5h1.75V4.5a.75.75 0 0 1 1.5 0v.75h2V4.5a.75.75 0 0 1 .75-.75m-3.728 9.5H12a1.25 1.25 0 1 0 0-2.5H8.266zm-.011-4H12l.128-.007A1.25 1.25 0 0 0 12 6.75H8.254z"/></svg>
